symbols/web/radio/materialsymbolsoutlined/radio_wght100grad200_40px.svg

<svg xmlns="http://www.w3.org/2000/svg" height="40" width="40"><path d="M7.667 35.667q-1.292 0-2.167-.896-.875-.896-.875-2.146V14.75q0-1.25.792-2.312.791-1.063 2-1.521l17.625-7.125.583 1.5-15.667 6.333h22.375q1.292 0 2.167.875.875.875.875 2.167v17.958q0 1.25-.875 2.146-.875.896-2.167.896Zm0-1.709h24.666q.5 0 .917-.416.417-.417.417-.917V21.208H6.333v11.417q0 .5.417.917.417.416.917.416ZM13 30.792q1.375 0 2.333-.959.959-.958.959-2.333 0-1.375-.959-2.333-.958-.959-2.333-.959-1.375 0-2.333.959-.959.958-.959 2.333 0 1.375.959 2.333.958.959 2.333.959ZM6.333 19.458h21.292v-3h1.75v3h4.292v-4.791q0-.5-.417-.917-.417-.417-.917-.417H7.667q-.5 0-.917.417-.417.417-.417.917Zm0 14.5v-12.75 12.75Z"/></svg>

<svg xmlns="http://www.w3.org/2000/svg" height="40" width="40"><path d="M9.958 11.625H32.333Q33.625 11.625 34.5 12.5Q35.375 13.375 35.375 14.667V32.625Q35.375 33.875 34.5 34.771Q33.625 35.667 32.333 35.667H7.667Q6.375 35.667 5.5 34.771Q4.625 33.875 4.625 32.625V14.75Q4.625 13.5 5.417 12.438Q6.208 11.375 7.417 10.917L25.042 3.792L25.625 5.292ZM6.333 21.208V32.625Q6.333 33.125 6.75 33.542Q7.167 33.958 7.667 33.958H32.333Q32.833 33.958 33.25 33.542Q33.667 33.125 33.667 32.625V21.208ZM6.333 19.458H27.625V16.458H29.375V19.458H33.667V14.667Q33.667 14.167 33.25 13.75Q32.833 13.333 32.333 13.333H7.667Q7.167 13.333 6.75 13.75Q6.333 14.167 6.333 14.667ZM13 30.792Q14.375 30.792 15.333 29.833Q16.292 28.875 16.292 27.5Q16.292 26.125 15.333 25.167Q14.375 24.208 13 24.208Q11.625 24.208 10.667 25.167Q9.708 26.125 9.708 27.5Q9.708 28.875 10.667 29.833Q11.625 30.792 13 30.792ZM6.333 21.208V32.625Q6.333 33.208 6.333 33.583Q6.333 33.958 6.333 33.958Q6.333 33.958 6.333 33.583Q6.333 33.208 6.333 32.625Z"/></svg>
